X:1
T:Title
%%score { ( 1 3 ) | ( 2 4 ) }
L:1/8
M:4/4
K:Bb
V:1 treble nm="Grand Piano"
V:3 treble 
V:2 bass 
V:4 bass 
V:1
 z4 z2[Q:1/4=100] [DF]>[CE] | [B,D][CE][DF][EG] [DF]2 [Fd][Fc] | [GB]>[GB] [FA][EG] [DF]2 D[CE] | %3
 [DF][DB][FB]c d3 [Ff] | [Fd]4 [Fc]2 [^Fd]>[DFc] |[M:3/4] [DGB][DGB] [DGB][C^FA] [B,G]2 | %6
[M:1/4] [CFA][B,FB] |[M:4/4] [=Ec][EB][CEA][B,EG] z CF_E | D[DF][FB]c d3 [Ff] | %9
[M:3/4] c4 [B,DB]2 |] %10
V:2
 z4 z2 [B,,B,]>[B,,F,] | [B,,F,][B,,B,][B,,B,][B,,B,] [B,,B,]2 [B,,B,][D,B,] | %2
 [E,G,]>[E,B,] [E,B,][E,B,] [B,,B,]2 [B,,B,][B,,B,] | %3
 [B,,B,][B,,F,][D,B,][K:treble][F,A,F] [B,F]3[K:bass] [D,B,] | [F,B,]4 [F,A,]2 [D,A,]>D, | %5
[M:3/4] G,G, G,D, E,2 |[M:1/4] E,D, |[M:4/4] [C,G,][C,G,]C,C, F,E,[D,B,][C,F,A,] | %8
 [B,,F,B,][B,,B,][D,B,][K:treble][F,A,F] [B,F]3[K:bass] [D,B,] |[M:3/4] z2 E2 B,,2 |] %10
V:3
 x8 | x8 | x8 | x8 | x8 |[M:3/4] x6 |[M:1/4] x2 |[M:4/4] z4 [A,F]2 z2 | x8 |[M:3/4] F2 z2 z2 |] %10
V:4
 x8 | x8 | x8 | x3[K:treble] x4[K:bass] x | x8 |[M:3/4] x6 |[M:1/4] x2 |[M:4/4] x8 | %8
 x3[K:treble] x4[K:bass] x |[M:3/4] [F,A,]4 z2 |] %10

